X: 858
T: Sally Gardens
B: jims roots
B: ralph
M:4/4
R: reel
Q: 1/4=100
K:G
V:1 
"G"G2DG B2GB|dBeB dBAB|d2 (3Bcd efge|"D"dBAB "Em"GEDE|
"G"G2DG BAGB|dBeB dBAB|d2 (3Bcd "C"efge|"D"dBAB "G"G3z:|
|:"G"dggf g2dg|g2bg ageg|"Am"eaag a2eg|"D"a2bg ageg|
"G"dggf g2dg|g2bg ageg|d2 (3Bcd "C"efge|"D"dBcA "G"G3z:|
% abcbook-tune_id 6298c287a7ac6d37ae4f44c9


% abcbook-boost 0
% abcbook-tablature 
% abcbook-transpose 
% abcbook-lastupdated 1662271258694
% abcbook-soundfonts 
% abcbook-repeats 1


